X: 65
M:4/4
L:1/8
K:G
eaaa agbg|agbg agef|dggg gfaf|gfaf gedf|
eaaa agbg|agbg agef|gfgf efga|gedB BA A2||

